build/images/ico/tw-light.svg

<?xml version="1.0" encoding="UTF-8"?>
<svg width="24px" height="24px" viewBox="0 0 24 24" version="1.1" xmlns="http://www.w3.org/2000/svg" xmlns:xlink="http://www.w3.org/1999/xlink">
    <title>TW-white@1x</title>
    <g id="1.-Design" stroke="none" stroke-width="1" fill="none" fill-rule="evenodd">
        <g id="HP-v.2.1-(schválená)" transform="translate(-1556, -3160)" fill="#01AEE2" fill-rule="nonzero">
            <g id="Partneři-+-patička" transform="translate(0, 2654)">
                <g id="patička" transform="translate(0, 415)">
                    <g id="twitter" transform="translate(1556, 91)">
                        <path d="M12,0 C5.3735962,0 0,5.3735962 0,12 C0,18.6264038 5.3735962,24 12,24 C18.6264038,24 24,18.6264038 24,12 C24,5.3735962 18.6264038,0 12,0 Z M17.479065,9.35632322 C17.484375,9.47442628 17.4869385,9.59307863 17.4869385,9.71228025 C17.4869385,13.3518677 14.7165527,17.5488281 9.65020753,17.5490112 L9.65039062,17.5490112 L9.65020753,17.5490112 C8.09472656,17.5490112 6.64727784,17.0930786 5.42834475,16.3117676 C5.64385988,16.3372193 5.8632202,16.3498535 6.08532713,16.3498535 C7.37585447,16.3498535 8.56347656,15.909668 9.50628661,15.1708374 C8.30053711,15.1484985 7.28393555,14.3521729 6.93310547,13.2577515 C7.10101317,13.289978 7.27368164,13.3075561 7.45074464,13.3075561 C7.70214844,13.3075561 7.94567869,13.2736816 8.177124,13.2105103 C6.91680909,12.9581909 5.96740725,11.8443604 5.96740725,10.5106201 C5.96740725,10.498169 5.96740725,10.4869995 5.96777344,10.4754638 C6.33892823,10.6818237 6.76336669,10.8059693 7.21527098,10.8198853 C6.47570803,10.326416 5.989563,9.48284911 5.989563,8.52722166 C5.989563,8.02258303 6.12597656,7.54980469 6.36254883,7.14276122 C7.72082522,8.80938722 9.75073242,9.90545653 12.039917,10.0206299 C11.9926758,9.81884766 11.9683228,9.60864258 11.9683228,9.39257813 C11.9683228,7.87207031 13.2019043,6.63848878 14.7229614,6.63848878 C15.5152588,6.63848878 16.2308349,6.97338867 16.7334595,7.50878906 C17.3609619,7.38500977 17.9501953,7.15576172 18.4824829,6.84027098 C18.2764893,7.4831543 17.8399658,8.02258303 17.2712402,8.36370848 C17.8284302,8.29705809 18.359436,8.14929197 18.8529052,7.92993164 C18.484314,8.48236083 18.0168457,8.96759034 17.479065,9.35632322 Z" id="Shape"></path>
                    </g>
                </g>
            </g>
        </g>
    </g>
</svg>

<svg width="24" height="24" viewBox="0 0 24 24" xmlns="http://www.w3.org/2000/svg"><path d="M12 0C5.374 0 0 5.374 0 12s5.374 12 12 12 12-5.374 12-12S18.626 0 12 0zm5.48 9.356c.004.118.007.237.007.356 0 3.64-2.77 7.837-7.837 7.837a7.796 7.796 0 01-4.222-1.237 5.527 5.527 0 004.078-1.14 2.757 2.757 0 01-2.573-1.914 2.741 2.741 0 001.244-.047 2.755 2.755 0 01-2.21-2.7v-.036c.372.207.796.331 1.248.345a2.752 2.752 0 01-.852-3.677 7.82 7.82 0 005.677 2.878 2.755 2.755 0 014.694-2.512 5.524 5.524 0 001.748-.669 2.765 2.765 0 01-1.21 1.524 5.493 5.493 0 001.58-.434 5.597 5.597 0 01-1.373 1.426z" fill="#01AEE2" fill-rule="nonzero"/></svg>
